X: 156
T:Marcha de Procesión (3, Vilacán)
M:6/8
L:1/16
Q:200
C:Trad
R:Marcha
K:C
G2 |: F2DEF2 G2D2G2 | F2DE F2 C4 G2| F2DEF2 G2D2G2|
F2DEF2 C4 c2 | B2GAB2 c2B2c2| B3Ac2 B2G2B2 | A2GABc d4G2|
A2GABA G4 G2 :||

